img/header__mail.svg

<svg width="19" height="13" viewBox="0 0 19 13" fill="none" xmlns="http://www.w3.org/2000/svg">
<path d="M18.0256 0.166626H0.974381C0.438447 0.166626 0 0.605073 0 1.14097V11.8589C0 12.3948 0.438447 12.8333 0.974381 12.8333H18.0257C18.5615 12.8333 19 12.3949 19 11.8589V1.14097C19 0.605073 18.5616 0.166626 18.0256 0.166626ZM17.66 0.897347L10.0605 6.59742C9.92386 6.7014 9.71412 6.76645 9.49996 6.76549C9.28584 6.76645 9.07614 6.7014 8.93946 6.59742L1.33998 0.897347H17.66ZM13.6006 6.97352L17.7416 12.0889C17.7458 12.0941 17.7509 12.098 17.7553 12.1026H1.24472C1.2491 12.0977 1.25422 12.0941 1.25838 12.0889L5.39941 6.97352C5.52629 6.81666 5.50224 6.5867 5.34509 6.45952C5.18822 6.33265 4.95826 6.35669 4.83134 6.51359L0.730758 11.5791V1.35409L8.50124 7.18197C8.79333 7.3995 9.14869 7.49525 9.49993 7.49621C9.85068 7.49547 10.2063 7.39973 10.4986 7.18197L18.2691 1.35409V11.579L14.1686 6.51359C14.0417 6.35673 13.8115 6.33261 13.6549 6.45952C13.4978 6.5864 13.4736 6.81666 13.6006 6.97352Z" fill="black"/>
</svg>

<svg width="19" height="13" fill="none" xmlns="http://www.w3.org/2000/svg"><path d="M18.026.167H.974A.977.977 0 000 1.14v10.718c0 .536.438.974.974.974h17.052A.977.977 0 0019 11.86V1.14a.977.977 0 00-.974-.974zm-.366.73l-7.6 5.7a.95.95 0 01-.56.168.95.95 0 01-.56-.168l-7.6-5.7h16.32zM13.6 6.974l4.142 5.115.013.014H1.245c.004-.005.01-.009.013-.014L5.4 6.974a.365.365 0 00-.568-.46l-4.1 5.065V1.354L8.5 7.182c.292.217.648.313.999.314.35 0 .706-.096.999-.314l7.77-5.828V11.58l-4.1-5.065a.365.365 0 10-.568.46z" fill="#000"/></svg>
